X:1
T:Title
%%score 1 { 2 | 3 }
L:1/8
Q:1/4=92
M:4/4
K:Eb
V:1 treble nm="Grand Piano, Soprano"
V:2 bass nm="Choir Pad, Are You Ready? (Colburn)"
V:3 bass 
V:1
 [EG]>[EA] [EB]>[E=A] [Ec]>[EB] [EB]<[EG] | [EG]>[DF] [CE]>[CE] [CE]>[CE] [B,E]2 | %2
w: By~Cary~Samuel~Colburn * * * * * * *||
 [B,E]>[B,F] [EG]>[EG] [EG]>[EG] [Ec]>[EB] | [EB]>[EG] [DF]6 | %4
w: ||
 [EG]>[EA] [EB]>[E=A] [Ec]>[EB] [EB]<[EG] | [EG]>[DF] E>E [EA]>[EA] [Ec]2 | %6
w: ||
 [Ec]>[Ec] [EB]>[EG] E>[EF] [EG]>[EB] | [DF]>[DG] E6 | [EB]>[E_d] [Ec]<[Ec] [Ec]>[Ec] [Ec]<[Ec]- | %9
w: |||
 [Ec]>[Ec] [Ec]>[EB] [EB]>[EG] [EB]2 | [GB]>[GB] [F=A]>[F_A] [F=A]>[F_A] [F=A]2 | %11
w: ||
 [EG]>[EF] [DF][DB]- [DB]2- [DB]/ z/ z | [EG]>[EA] [EB]>[E=A] [Ec]>[EB] [EB]<[EG] | %13
w: ||
 [EG]>[DF] E>E [EG]>[Ec] [Ee]2 | [EA]>[EA] [EB]>B G>E [DB]2 | [EG]>[B,E] [B,F]4 [B,E]2- | %16
w: |||
 [B,E]6 z2 |] %17
w: |
V:2
 E,>F, G,>_G, A,>=G, G,<B, | B,>A, G,>G, A,>A, G,2 | G,>A, B,>B, B,>B, A,>G, | G,>B, B,6 | %4
 B,>F, G,>_G, A,>=G, G,<B, | B,>A, G,>G, C>C A,2 | A,>A, G,>B, B,>C B,>G, | A,>B, G,6 | %8
 G,>G, A,<A, A,>A, A,<A,- | A,>A, A,>G, G,>B, G,2 | B,>[K:treble]_D C>=B, C>B, C2 | %11
 B,>=A, B,F,- F,2- F,/ z/ z | E,>F, G,>_G, A,>=G, G,<B, | B,>A, G,>G, G,>G, =A,2 | %14
 _G,>G, =G,>B, G,>E, F,2 | B,>G, A,4 G,2- | G,6 z2 |] %17
V:3
 z z/ E,/ E,>E, E,>E, E,<E, | E,>B,, C,>C, A,,>A,, E,2 | E,>E, E,>E, E,>E, E,>E, | E,>E, B,,6 | %4
 E,>E, E,>E, E,>E, E,<E, | E,>B,, C,>C, A,,>A,, A,,2 | A,,>C, E,>E, G,>A, z z/ B,,/ | B,,>B,, E,6 | %8
 E,>E, A,,<A,, A,,>A,, A,,<A,,- | A,,>C, E,>E, E,>E, E,2 | E,>E, F,>F, F,>F, F,2 | %11
 F,>F, B,,B,,- B,,2- B,,/ z/ z | z z/ E,/ E,>E, E,>E, E,<E, | E,>B,, C,>C, C,>C, =B,,2 | %14
 =B,,>B,, _B,,2 z2 B,,2 | B,,>B,, B,,2 C,D, E,2- | E,6 z2 |] %17

